X:35
T: Die Mordwirtin (Band 1), S. 109
N: P0809
O: Lothringen
S: PINCK, Louis: Verklingende Weisen, Bd 1, Metz 1928]
R: Habgier, Mord, Vergeltung]
M: 6/8
L: 1/16
K: G
D2 | D4B2B4A2 | A4G2G4
F2 | E4E2G4
EE | E4D2G4
D2 | E4E2G4E2 | D6D4
G2 | F4F2A4F2 | F4A2G4

